X: 4103
M: C|
L: 1/8
K: Em
uF |\
E2EF G2GB | ABAG FEDF |\
E2EF G2GB | efe^d e3 ::\
eBef g2(fe) | defg afdf |\
[1 eBef g2(fe) | efe^d e3 :|\
[2 ~g2bg ~f2af | gfe^d e3 |]


